packages/core/src/svgs/ibit.svg

<svg width="24" height="24" viewBox="0 0 24 24" fill="none" xmlns="http://www.w3.org/2000/svg">
<g clip-path="url(#clip0_31_11672)">
<path d="M0 0H24V24H0V0Z" fill="url(#paint0_linear_31_11672)"/>
<path d="M7.71418 8.14272C8.42426 8.14272 8.9999 7.56708 8.9999 6.857C8.9999 6.14692 8.42426 5.57129 7.71418 5.57129C7.0041 5.57129 6.42847 6.14692 6.42847 6.857C6.42847 7.56708 7.0041 8.14272 7.71418 8.14272Z" fill="#4A9EDC"/>
<path d="M7.71431 7.51309C8.07645 7.51309 8.37002 7.21952 8.37002 6.85737C8.37002 6.49523 8.07645 6.20166 7.71431 6.20166C7.35217 6.20166 7.05859 6.49523 7.05859 6.85737C7.05859 7.21952 7.35217 7.51309 7.71431 7.51309Z" fill="#3C7DC8"/>
<path d="M18.4287 13.2856C18.9021 13.2856 19.2858 12.9018 19.2858 12.4284C19.2858 11.955 18.9021 11.5713 18.4287 11.5713C17.9553 11.5713 17.5715 11.955 17.5715 12.4284C17.5715 12.9018 17.9553 13.2856 18.4287 13.2856Z" fill="#E93536"/>
<path d="M18.4286 12.8655C18.67 12.8655 18.8657 12.6698 18.8657 12.4284C18.8657 12.1869 18.67 11.9912 18.4286 11.9912C18.1872 11.9912 17.9915 12.1869 17.9915 12.4284C17.9915 12.6698 18.1872 12.8655 18.4286 12.8655Z" fill="#DC1755"/>
<path d="M7.19988 8.49429C3.61702 9.21858 4.67988 13.0243 5.65702 14.8371C5.34845 12.4243 6.27845 10.6929 7.61559 10.5686C8.95702 10.4486 9.90845 11.2543 12.407 13.74C14.9056 16.2257 16.3242 16.7143 17.6613 16.6671C19.0027 16.62 19.517 16.11 19.4185 15.2271C19.3327 14.5243 18.0556 14.6743 17.4299 14.8414C17.7213 14.8414 18.3384 14.9657 18.4584 15.4714C18.587 15.9814 17.9784 16.1057 17.6613 16.1057C15.7842 15.8143 14.1599 13.7657 11.5584 10.9114C9.47559 8.62715 8.02702 8.33143 7.20416 8.49429H7.19988Z" fill="url(#paint1_linear_31_11672)"/>
<path d="M18.4972 16.5516C16.5687 16.423 15.5358 15.6516 14.5801 14.9359C14.413 14.8073 14.2501 14.6873 14.083 14.5716C13.7572 14.3402 13.3072 13.8473 12.7672 13.2559C11.2844 11.6359 9.13296 9.28732 7.15296 9.7159C5.15582 10.1445 5.09582 12.703 5.35296 14.2159L5.47296 14.473L5.48153 14.4559L5.60582 14.2116C5.5201 12.1288 6.39439 10.6802 7.6201 10.5688C8.95725 10.4488 9.90868 11.2545 12.4072 13.7402C14.9058 16.2259 16.3244 16.7145 17.6615 16.6673C17.9872 16.6545 18.2658 16.6159 18.4972 16.5516Z" fill="url(#paint2_linear_31_11672)"/>
<path d="M9.03435 17.5716C6.39435 17.5288 6.35578 15.2445 6.66435 14.1045C6.99863 15.7888 7.41006 16.5216 9.03435 16.6416C10.3329 16.7402 12.6815 15.7588 13.6972 15.2531L14.8029 16.1102C13.7229 16.4745 12.3301 17.6188 9.03435 17.5673V17.5716Z" fill="url(#paint3_linear_31_11672)"/>
<path d="M6.53149 15.1328C6.54007 16.2557 7.06292 17.5414 9.03435 17.5714C11.5629 17.6057 12.9772 16.9414 13.9801 16.4614C14.2844 16.32 14.5544 16.1914 14.8029 16.1057L14.1472 15.6042C12.9644 16.1914 10.7315 17.1042 9.06007 17.1042C7.55149 17.1042 6.81435 15.9985 6.53149 15.1328Z" fill="url(#paint4_linear_31_11672)"/>
<path d="M18.1243 13.7358C17.1386 13.6501 15.8529 14.2501 15.3386 14.5544L16.3458 15.4458C16.5343 15.3044 17.1172 15.0173 17.9315 15.0087C18.7543 14.9958 19.1143 15.7373 19.1915 16.1144C20.3743 15.0344 19.3501 13.843 18.1201 13.7358H18.1243Z" fill="url(#paint5_linear_31_11672)"/>
<path d="M15.7715 14.9358C16.3801 14.7087 17.4815 14.3701 18.1672 14.4215C19.0072 14.4815 19.3243 15.163 19.2729 16.0373C20.3272 14.9787 19.3201 13.843 18.1243 13.7358C17.1386 13.6501 15.8529 14.2501 15.3386 14.5544L15.7672 14.9358H15.7715Z" fill="url(#paint6_linear_31_11672)"/>
</g>
<defs>
<linearGradient id="paint0_linear_31_11672" x1="4.46571" y1="4.16143" x2="29.2071" y2="32.58" gradientUnits="userSpaceOnUse">
<stop stop-color="#1A1E21"/>
<stop offset="1" stop-color="#06060A"/>
</linearGradient>
<linearGradient id="paint1_linear_31_11672" x1="4.89845" y1="11.0186" x2="18.5484" y2="17.04" gradientUnits="userSpaceOnUse">
<stop stop-color="#4EA8E2"/>
<stop offset="0.27" stop-color="#3A6EBF"/>
<stop offset="0.66" stop-color="#563499"/>
<stop offset="1" stop-color="#E21068"/>
</linearGradient>
<linearGradient id="paint2_linear_31_11672" x1="5.7601" y1="11.5845" x2="17.3144" y2="17.3445" gradientUnits="userSpaceOnUse">
<stop stop-color="#81D5DF"/>
<stop offset="0.55" stop-color="#7E88C5"/>
<stop offset="1" stop-color="#D32B9E"/>
</linearGradient>
<linearGradient id="paint3_linear_31_11672" x1="6.53149" y1="15.2916" x2="13.7486" y2="16.0459" gradientUnits="userSpaceOnUse">
<stop stop-color="#F4F35A"/>
<stop offset="0.43" stop-color="#EF2D8E"/>
<stop offset="1" stop-color="#B039A3"/>
</linearGradient>
<linearGradient id="paint4_linear_31_11672" x1="6.65149" y1="15.8657" x2="14.2244" y2="16.1657" gradientUnits="userSpaceOnUse">
<stop stop-color="#F68F2D"/>
<stop offset="0.22" stop-color="#F24F25"/>
<stop offset="0.46" stop-color="#C61367"/>
<stop offset="1" stop-color="#8A1A8E"/>
</linearGradient>
<linearGradient id="paint5_linear_31_11672" x1="15.9043" y1="15.1158" x2="19.0458" y2="15.6858" gradientUnits="userSpaceOnUse">
<stop stop-color="#8A1A8E"/>
<stop offset="0.54" stop-color="#EA3734"/>
<stop offset="1" stop-color="#E11169"/>
</linearGradient>
<linearGradient id="paint6_linear_31_11672" x1="15.7158" y1="14.6358" x2="19.6972" y2="15.4544" gradientUnits="userSpaceOnUse">
<stop stop-color="#AE3AA3"/>
<stop offset="0.44" stop-color="#EE2494"/>
<stop offset="1" stop-color="#F9E449"/>
</linearGradient>
<clipPath id="clip0_31_11672">
<rect width="24" height="24" fill="white"/>
</clipPath>
</defs>
</svg>

<svg xmlns="http://www.w3.org/2000/svg" width="24" height="24" fill="none" viewBox="0 0 24 24"><g clip-path="url(#a)"><path fill="url(#b)" d="M0 0h24v24H0z"/><path fill="#4A9EDC" d="M7.714 8.143a1.286 1.286 0 1 0 0-2.572 1.286 1.286 0 0 0 0 2.572"/><path fill="#3C7DC8" d="M7.714 7.513a.656.656 0 1 0 0-1.311.656.656 0 0 0 0 1.311"/><path fill="#E93536" d="M18.429 13.286a.857.857 0 1 0 0-1.715.857.857 0 0 0 0 1.715"/><path fill="#DC1755" d="M18.429 12.866a.437.437 0 1 0 0-.875.437.437 0 0 0 0 .875"/><path fill="url(#c)" d="M7.2 8.494c-3.583.725-2.52 4.53-1.543 6.343-.309-2.413.621-4.144 1.959-4.268 1.341-.12 2.292.685 4.791 3.171s3.917 2.974 5.254 2.927c1.342-.047 1.856-.557 1.758-1.44-.086-.703-1.363-.553-1.99-.386.292 0 .91.125 1.03.63.128.51-.48.635-.798.635-1.877-.292-3.501-2.34-6.103-5.195-2.082-2.284-3.531-2.58-4.354-2.417z"/><path fill="url(#d)" d="M18.497 16.552c-1.928-.129-2.961-.9-3.917-1.616q-.249-.192-.497-.364c-.326-.232-.776-.725-1.316-1.316-1.483-1.62-3.634-3.969-5.614-3.54-1.997.429-2.057 2.987-1.8 4.5l.12.257.009-.017.124-.244c-.086-2.083.788-3.532 2.014-3.643 1.337-.12 2.289.685 4.787 3.171 2.499 2.486 3.917 2.975 5.255 2.927a3.7 3.7 0 0 0 .835-.115"/><path fill="url(#e)" d="M9.034 17.572c-2.64-.043-2.678-2.327-2.37-3.467.335 1.684.746 2.417 2.37 2.537 1.299.098 3.647-.883 4.663-1.389l1.106.857c-1.08.364-2.473 1.509-5.769 1.457z"/><path fill="url(#f)" d="M6.531 15.133c.01 1.123.532 2.408 2.503 2.438 2.529.035 3.943-.63 4.946-1.11.304-.141.574-.27.823-.355l-.656-.502c-1.183.587-3.415 1.5-5.087 1.5-1.509 0-2.246-1.105-2.529-1.971"/><path fill="url(#g)" d="M18.124 13.736c-.985-.086-2.271.514-2.785.818l1.007.892c.188-.142.771-.429 1.585-.437.823-.013 1.183.728 1.26 1.105 1.183-1.08.16-2.271-1.07-2.378z"/><path fill="url(#h)" d="M15.772 14.936c.608-.227 1.71-.566 2.395-.514.84.06 1.157.741 1.106 1.615 1.054-1.058.047-2.194-1.149-2.301-.985-.086-2.271.514-2.785.818l.428.382z"/></g><defs><linearGradient id="b" x1="4.466" x2="29.207" y1="4.161" y2="32.58" gradientUnits="userSpaceOnUse"><stop stop-color="#1A1E21"/><stop offset="1" stop-color="#06060A"/></linearGradient><linearGradient id="c" x1="4.898" x2="18.548" y1="11.019" y2="17.04" gradientUnits="userSpaceOnUse"><stop stop-color="#4EA8E2"/><stop offset=".27" stop-color="#3A6EBF"/><stop offset=".66" stop-color="#563499"/><stop offset="1" stop-color="#E21068"/></linearGradient><linearGradient id="d" x1="5.76" x2="17.314" y1="11.585" y2="17.345" gradientUnits="userSpaceOnUse"><stop stop-color="#81D5DF"/><stop offset=".55" stop-color="#7E88C5"/><stop offset="1" stop-color="#D32B9E"/></linearGradient><linearGradient id="e" x1="6.531" x2="13.749" y1="15.292" y2="16.046" gradientUnits="userSpaceOnUse"><stop stop-color="#F4F35A"/><stop offset=".43" stop-color="#EF2D8E"/><stop offset="1" stop-color="#B039A3"/></linearGradient><linearGradient id="f" x1="6.651" x2="14.224" y1="15.866" y2="16.166" gradientUnits="userSpaceOnUse"><stop stop-color="#F68F2D"/><stop offset=".22" stop-color="#F24F25"/><stop offset=".46" stop-color="#C61367"/><stop offset="1" stop-color="#8A1A8E"/></linearGradient><linearGradient id="g" x1="15.904" x2="19.046" y1="15.116" y2="15.686" gradientUnits="userSpaceOnUse"><stop stop-color="#8A1A8E"/><stop offset=".54" stop-color="#EA3734"/><stop offset="1" stop-color="#E11169"/></linearGradient><linearGradient id="h" x1="15.716" x2="19.697" y1="14.636" y2="15.454" gradientUnits="userSpaceOnUse"><stop stop-color="#AE3AA3"/><stop offset=".44" stop-color="#EE2494"/><stop offset="1" stop-color="#F9E449"/></linearGradient><clipPath id="a"><path fill="#fff" d="M0 0h24v24H0z"/></clipPath></defs></svg>
